src/images/advantages/fence-icon.svg

<svg fill="none" height="29" viewBox="0 0 28 29" width="28" xmlns="http://www.w3.org/2000/svg"><g stroke="#080807" stroke-linecap="round" stroke-linejoin="round" stroke-width="2"><path d="m4.66663 2.83331v23.33329"/><path d="m25.6667 7.5h-23.33333"/><path d="m23.3333 26.1667-18.66667-18.6667"/><path d="m4.66663 26.1667 18.66667-18.6667"/><path d="m15.75 26.1666-11.08337-11.0833"/><path d="m23.3333 18.5833-11.0833-11.0833"/><path d="m4.66663 18.5833 10.49997-11.0833"/><path d="m12.25 26.1666 11.0833-11.0833"/><path d="m25.6667 26.1667h-23.33333"/><path d="m23.3334 2.83331v23.33329"/></g></svg>

<svg width="28" height="29" viewBox="0 0 28 29" fill="none" xmlns="http://www.w3.org/2000/svg">
<g id="fence-one-svgrepo-com 1">
<path id="Vector" d="M4.66663 2.83331V26.1666" stroke="#080807" stroke-width="2" stroke-linecap="round" stroke-linejoin="round"/>
<path id="Vector_2" d="M25.6667 7.5H2.33337" stroke="#080807" stroke-width="2" stroke-linecap="round" stroke-linejoin="round"/>
<path id="Vector_3" d="M23.3333 26.1667L4.66663 7.5" stroke="#080807" stroke-width="2" stroke-linecap="round" stroke-linejoin="round"/>
<path id="Vector_4" d="M4.66663 26.1667L23.3333 7.5" stroke="#080807" stroke-width="2" stroke-linecap="round" stroke-linejoin="round"/>
<path id="Vector_5" d="M15.75 26.1666L4.66663 15.0833" stroke="#080807" stroke-width="2" stroke-linecap="round" stroke-linejoin="round"/>
<path id="Vector_6" d="M23.3333 18.5833L12.25 7.5" stroke="#080807" stroke-width="2" stroke-linecap="round" stroke-linejoin="round"/>
<path id="Vector_7" d="M4.66663 18.5833L15.1666 7.5" stroke="#080807" stroke-width="2" stroke-linecap="round" stroke-linejoin="round"/>
<path id="Vector_8" d="M12.25 26.1666L23.3333 15.0833" stroke="#080807" stroke-width="2" stroke-linecap="round" stroke-linejoin="round"/>
<path id="Vector_9" d="M25.6667 26.1667H2.33337" stroke="#080807" stroke-width="2" stroke-linecap="round" stroke-linejoin="round"/>
<path id="Vector_10" d="M23.3334 2.83331V26.1666" stroke="#080807" stroke-width="2" stroke-linecap="round" stroke-linejoin="round"/>
</g>
</svg>
